;FLAVOR:Marlin
;TIME:4945
;Filament used: 8.05653m
;Layer height: 0.32
;MINX:82
;MINY:19.163
;MINZ:0.32
;MAXX:153
;MAXY:90.163
;MAXZ:22.08
;Generated with Cura_SteamEngine 4.12.1
M140 S50
M105
M190 S50
M104 S200
M105
M109 S200
M82 ;absolute extrusion mode
; Ender 3 Custom Start G-code
G92 E0 ; Reset Extruder
G28 ; Home all axes
G1 Z2.0 F3000 ; Move Z Axis up little to prevent scratching of Heat Bed
G1 X0.1 Y20 Z0.3 F5000.0 ; Move to start position
G1 X0.1 Y200.0 Z0.3 F1500.0 E15 ; Draw the first line
G1 X0.4 Y200.0 Z0.3 F5000.0 ; Move to side a little
G1 X0.4 Y20 Z0.3 F1500.0 E30 ; Draw the second line
G92 E0 ; Reset Extruder
G1 Z2.0 F3000 ; Move Z Axis up little to prevent scratching of Heat Bed
G1 X5 Y20 Z0.3 F5000.0 ; Move over to prevent blob squish
G92 E0
G92 E0
G1 F2700 E-5
;LAYER_COUNT:69
;LAYER:0
M107
G0 F6000 X83.115 Y47.197 Z0.32
;TYPE:SKIRT
G1 F2700 E0
G1 F1200 X83.32 Y46.841 E0.05465
G1 X83.484 Y46.573 E0.09645
G1 X83.921 Y45.935 E0.19934
G1 X84.176 Y45.619 E0.25336
G1 X84.38 Y45.38 E0.29516
G1 X84.913 Y44.818 E0.39821
G1 X85.214 Y44.546 E0.45218
G1 X85.454 Y44.341 E0.49418
G1 X86.068 Y43.869 E0.59721
G1 X86.406 Y43.649 E0.65086
G1 X86.672 Y43.486 E0.69237
G1 X87.353 Y43.116 E0.79548
G1 X87.732 Y42.947 E0.85069
G1 X88.023 Y42.827 E0.89256
G1 X89.108 Y42.474 E1.04436
G1 X89.412 Y42.4 E1.08599
G1 X90.173 Y42.256 E1.18903
G1 X90.616 Y42.209 E1.24829
G1 X90.931 Y42.185 E1.29032
G1 X91.501 Y42.163 E1.36621
G1 X97.029 Y42.163 E2.10166
G1 X97.066 Y42.097 E2.11173
G1 X97.606 Y41.258 E2.24447
G1 X98.916 Y39.494 E2.53679
G1 X99.562 Y38.735 E2.66939
G1 X101.092 Y37.163 E2.96123
G1 X101.833 Y36.497 E3.09378
G1 X103.561 Y35.139 E3.38617
G1 X104.39 Y34.573 E3.51972
G1 X105 Y34.214 E3.61389
G1 X105 Y28.664 E4.35226
G1 X105.024 Y28.071 E4.43122
G1 X105.049 Y27.756 E4.47326
G1 X105.229 Y26.61 E4.62759
G1 X105.301 Y26.308 E4.6689
G1 X105.52 Y25.565 E4.77195
G1 X105.663 Y25.188 E4.82559
G1 X105.783 Y24.897 E4.86747
G1 X106.115 Y24.197 E4.97054
G1 X106.32 Y23.841 E5.0252
G1 X106.484 Y23.573 E5.067
G1 X106.921 Y22.935 E5.16988
G1 X107.176 Y22.619 E5.2239
G1 X107.38 Y22.38 E5.2657
G1 X107.913 Y21.818 E5.36875
G1 X108.214 Y21.546 E5.42273
G1 X108.454 Y21.341 E5.46472
G1 X109.068 Y20.869 E5.56775
G1 X109.406 Y20.649 E5.62141
G1 X109.672 Y20.486 E5.66291
G1 X110.353 Y20.116 E5.76602
G1 X110.732 Y19.947 E5.82123
G1 X111.023 Y19.827 E5.8631
G1 X112.108 Y19.474 E6.0149
G1 X112.412 Y19.4 E6.05653
G1 X113.173 Y19.256 E6.15957
G1 X113.616 Y19.209 E6.21883
G1 X113.931 Y19.185 E6.26086
G1 X114.501 Y19.163 E6.33675
G1 X120.499 Y19.163 E7.13473
G1 X121.069 Y19.185 E7.21062
G1 X121.384 Y19.209 E7.25265
G1 X122.152 Y19.307 E7.35565
G1 X122.588 Y19.4 E7.41496
G1 X122.892 Y19.474 E7.45659
G1 X123.974 Y19.826 E7.60796
G1 X124.263 Y19.945 E7.64955
G1 X124.962 Y20.276 E7.75244
G1 X125.322 Y20.483 E7.80769
G1 X125.59 Y20.647 E7.84949
G1 X126.228 Y21.084 E7.95237
G1 X126.542 Y21.338 E8.0061
G1 X126.78 Y21.541 E8.04772
G1 X127.343 Y22.073 E8.15077
G1 X127.614 Y22.374 E8.20466
G1 X127.82 Y22.615 E8.24684
G1 X128.292 Y23.229 E8.34987
G1 X128.514 Y23.569 E8.40389
G1 X128.677 Y23.835 E8.4454
G1 X129.047 Y24.516 E8.54851
G1 X129.212 Y24.886 E8.6024
G1 X129.332 Y25.176 E8.64416
G1 X129.591 Y25.906 E8.74721
G1 X129.696 Y26.298 E8.8012
G1 X129.769 Y26.603 E8.84292
G1 X129.91 Y27.365 E8.94602
G1 X129.951 Y27.752 E8.9978
G1 X129.976 Y28.065 E9.03957
G1 X130 Y28.662 E9.11906
G1 X130 Y34.213 E9.85757
G1 X130.612 Y34.574 E9.9521
G1 X131.323 Y35.05 E10.06593
G1 X132.534 Y35.964 E10.26778
G1 X132.76 Y36.141 E10.30597
G1 X133.064 Y36.394 E10.35859
G1 X133.383 Y36.671 E10.4148
G1 X133.941 Y37.208 E10.51783
G1 X134.44 Y37.8 E10.62083
G1 X134.876 Y38.44 E10.72386
G1 X135.209 Y39.059 E10.81737
G1 X135.705 Y39.405 E10.89783
G1 X136.292 Y39.911 E11.00093
G1 X136.823 Y40.474 E11.1039
G1 X137.331 Y41.147 E11.21608
G1 X137.632 Y41.599 E11.28832
G1 X137.849 Y41.948 E11.343
G1 X137.973 Y42.163 E11.37602
G1 X143.499 Y42.163 E12.1112
G1 X144.069 Y42.185 E12.18709
G1 X144.384 Y42.209 E12.22912
G1 X145.152 Y42.307 E12.33212
G1 X145.588 Y42.4 E12.39143
G1 X145.892 Y42.474 E12.43306
G1 X146.974 Y42.826 E12.58443
G1 X147.263 Y42.945 E12.62602
G1 X147.962 Y43.276 E12.72891
G1 X148.322 Y43.483 E12.78416
G1 X148.59 Y43.647 E12.82596
G1 X149.228 Y44.084 E12.92884
G1 X149.542 Y44.338 E12.98257
G1 X149.78 Y44.541 E13.02419
G1 X150.343 Y45.073 E13.12724
G1 X150.614 Y45.374 E13.18113
G1 X150.82 Y45.615 E13.22331
G1 X151.292 Y46.229 E13.32634
G1 X151.514 Y46.569 E13.38036
G1 X151.677 Y46.835 E13.42187
G1 X152.047 Y47.516 E13.52498
G1 X152.212 Y47.886 E13.57887
G1 X152.332 Y48.176 E13.62063
G1 X152.591 Y48.906 E13.72368
G1 X152.696 Y49.298 E13.77767
G1 X152.769 Y49.603 E13.81939
G1 X152.91 Y50.365 E13.92249
G1 X152.951 Y50.752 E13.97427
G1 X152.976 Y51.065 E14.01604
G1 X153 Y51.662 E14.09553
G1 X153 Y57.662 E14.89377
G1 X152.976 Y58.255 E14.97273
G1 X152.951 Y58.57 E15.01477
G1 X152.771 Y59.716 E15.1691
G1 X152.699 Y60.018 E15.21041
G1 X152.48 Y60.761 E15.31346
G1 X152.337 Y61.138 E15.3671
G1 X152.217 Y61.429 E15.40898
G1 X151.885 Y62.129 E15.51205
G1 X151.674 Y62.495 E15.56826
G1 X151.51 Y62.762 E15.60995
G1 X151.071 Y63.4 E15.71298
G1 X150.824 Y63.706 E15.7653
G1 X150.62 Y63.945 E15.8071
G1 X150.087 Y64.507 E15.91015
G1 X149.798 Y64.769 E15.96205
G1 X149.559 Y64.974 E16.00394
G1 X148.946 Y65.447 E16.10695
G1 X148.601 Y65.672 E16.16174
G1 X148.334 Y65.836 E16.20343
G1 X147.655 Y66.206 E16.30631
G1 X147.268 Y66.379 E16.3627
G1 X146.977 Y66.499 E16.40458
G1 X146.247 Y66.756 E16.50754
G1 X145.869 Y66.858 E16.55963
G1 X145.565 Y66.931 E16.60123
G1 X144.804 Y67.072 E16.70419
G1 X144.407 Y67.114 E16.7573
G1 X144.092 Y67.139 E16.79934
G1 X143.499 Y67.163 E16.8783
G1 X137.97 Y67.163 E17.61388
G1 X137.934 Y67.228 E17.62377
G1 X137.395 Y68.065 E17.75621
G1 X136.085 Y69.83 E18.04864
G1 X135.436 Y70.593 E18.18191
G1 X133.906 Y72.164 E18.47365
G1 X133.167 Y72.828 E18.60583
G1 X131.439 Y74.186 E18.89822
G1 X130.61 Y74.752 E19.03176
G1 X130 Y75.111 E19.12593
G1 X130 Y80.662 E19.86444
G1 X129.976 Y81.255 E19.9434
G1 X129.951 Y81.57 E19.98544
G1 X129.771 Y82.716 E20.13977
G1 X129.699 Y83.018 E20.18107
G1 X129.48 Y83.761 E20.28413
G1 X129.337 Y84.138 E20.33777
G1 X129.217 Y84.429 E20.37965
G1 X128.885 Y85.129 E20.48272
G1 X128.674 Y85.495 E20.53893
G1 X128.51 Y85.762 E20.58061
G1 X128.071 Y86.4 E20.68365
G1 X127.824 Y86.706 E20.73596
G1 X127.62 Y86.945 E20.77777
G1 X127.087 Y87.507 E20.88082
G1 X126.798 Y87.769 E20.93271
G1 X126.559 Y87.974 E20.9746
G1 X125.946 Y88.447 E21.07761
G1 X125.601 Y88.672 E21.13241
G1 X125.334 Y88.836 E21.1741
G1 X124.655 Y89.206 E21.27697
G1 X124.268 Y89.379 E21.33337
G1 X123.977 Y89.499 E21.37525
G1 X123.247 Y89.756 E21.47821
G1 X122.869 Y89.858 E21.5303
G1 X122.565 Y89.931 E21.57189
G1 X121.804 Y90.072 E21.67486
G1 X121.407 Y90.114 E21.72797
G1 X121.092 Y90.139 E21.77001
G1 X120.499 Y90.163 E21.84897
G1 X114.501 Y90.163 E22.64695
G1 X113.908 Y90.139 E22.7259
G1 X113.593 Y90.114 E22.76794
G1 X112.825 Y90.013 E22.871
G1 X112.435 Y89.931 E22.92402
G1 X112.131 Y89.858 E22.96561
G1 X111.388 Y89.638 E23.0687
G1 X111.023 Y89.499 E23.12067
G1 X110.732 Y89.379 E23.16254
G1 X110.032 Y89.047 E23.26561
G1 X109.666 Y88.836 E23.32182
G1 X109.399 Y88.672 E23.36351
G1 X108.761 Y88.233 E23.46654
G1 X108.441 Y87.974 E23.52131
G1 X108.202 Y87.769 E23.5632
G1 X107.641 Y87.235 E23.66624
G1 X107.38 Y86.945 E23.71815
G1 X107.176 Y86.706 E23.75995
G1 X106.705 Y86.092 E23.86291
G1 X106.49 Y85.762 E23.91531
G1 X106.326 Y85.495 E23.95699
G1 X105.956 Y84.816 E24.05987
G1 X105.783 Y84.429 E24.11627
G1 X105.663 Y84.138 E24.15814
G1 X105.406 Y83.408 E24.26111
G1 X105.301 Y83.018 E24.31484
G1 X105.229 Y82.716 E24.35614
G1 X105.049 Y81.574 E24.50995
G1 X105.024 Y81.261 E24.55173
G1 X105 Y80.664 E24.63122
G1 X105 Y75.112 E25.36986
G1 X104.388 Y74.751 E25.46439
G1 X103.561 Y74.186 E25.59764
G1 X101.833 Y72.828 E25.89003
G1 X101.094 Y72.164 E26.0222
G1 X99.564 Y70.593 E26.31395
G1 X98.915 Y69.83 E26.44722
G1 X97.605 Y68.065 E26.73964
G1 X97.066 Y67.229 E26.87198
G1 X97.029 Y67.163 E26.88204
G1 X91.501 Y67.163 E27.61749
G1 X90.908 Y67.139 E27.69645
G1 X90.593 Y67.114 E27.73849
G1 X89.825 Y67.013 E27.84154
G1 X89.435 Y66.931 E27.89456
G1 X89.131 Y66.858 E27.93616
G1 X88.388 Y66.638 E28.03925
G1 X88.023 Y66.499 E28.09121
G1 X87.732 Y66.379 E28.13309
G1 X87.032 Y66.047 E28.23616
G1 X86.666 Y65.836 E28.29237
G1 X86.399 Y65.672 E28.33405
G1 X85.761 Y65.233 E28.43709
G1 X85.441 Y64.974 E28.49186
G1 X85.202 Y64.769 E28.53375
G1 X84.641 Y64.235 E28.63679
G1 X84.38 Y63.945 E28.6887
G1 X84.176 Y63.706 E28.7305
G1 X83.705 Y63.092 E28.83345
G1 X83.49 Y62.762 E28.88585
G1 X83.326 Y62.495 E28.92754
G1 X82.956 Y61.816 E29.03042
G1 X82.783 Y61.429 E29.08681
G1 X82.663 Y61.138 E29.12869
G1 X82.406 Y60.408 E29.23165
G1 X82.301 Y60.018 E29.28539
G1 X82.229 Y59.716 E29.32669
G1 X82.049 Y58.574 E29.4805
G1 X82.024 Y58.261 E29.52227
G1 X82 Y57.664 E29.60176
G1 X82 Y51.664 E30.40001
G1 X82.024 Y51.071 E30.47896
G1 X82.049 Y50.756 E30.521
G1 X82.229 Y49.61 E30.67534
G1 X82.301 Y49.308 E30.71664
G1 X82.52 Y48.565 E30.81969
G1 X82.663 Y48.188 E30.87334
G1 X82.783 Y47.897 E30.91521
G1 X83.115 Y47.197 E31.01829
G0 F6000 X84.173 Y47.363
G1 F1200 X84.337 Y47.095 E31.06009
G1 X84.937 Y46.268 E31.19602
G1 X85.141 Y46.029 E31.23782
G1 X85.863 Y45.307 E31.37367
G1 X86.103 Y45.102 E31.41566
G1 X86.929 Y44.502 E31.55148
G1 X87.195 Y44.339 E31.59299
G1 X88.113 Y43.872 E31.73001
G1 X88.404 Y43.752 E31.77189
G1 X89.345 Y43.445 E31.90358
G1 X89.649 Y43.371 E31.9452
G1 X90.692 Y43.206 E32.08569
G1 X91.007 Y43.182 E32.12772
G1 X91.501 Y43.163 E32.19349
G1 X97.618 Y43.163 E33.0073
G1 X97.94 Y42.582 E33.09567
G1 X98.409 Y41.855 E33.21077
G1 X99.719 Y40.091 E33.50309
G1 X100.279 Y39.432 E33.61814
G1 X101.809 Y37.86 E33.90999
G1 X102.451 Y37.283 E34.02483
G1 X104.179 Y35.925 E34.31722
G1 X104.897 Y35.435 E34.43287
G1 X106 Y34.786 E34.60313
G1 X106 Y28.664 E35.4176
G1 X106.02 Y28.15 E35.48604
G1 X106.045 Y27.835 E35.52808
G1 X106.202 Y26.842 E35.66183
G1 X106.274 Y26.54 E35.70313
G1 X106.588 Y25.569 E35.8389
G1 X106.708 Y25.278 E35.88078
G1 X107.173 Y24.363 E36.01733
G1 X107.337 Y24.095 E36.05913
G1 X107.937 Y23.268 E36.19506
G1 X108.141 Y23.029 E36.23686
G1 X108.863 Y22.307 E36.37271
G1 X109.103 Y22.102 E36.4147
G1 X109.929 Y21.502 E36.55052
G1 X110.195 Y21.339 E36.59203
G1 X111.113 Y20.872 E36.72905
G1 X111.404 Y20.752 E36.77093
G1 X112.345 Y20.445 E36.90261
G1 X112.649 Y20.371 E36.94424
G1 X113.692 Y20.206 E37.08473
G1 X114.007 Y20.182 E37.12676
G1 X114.501 Y20.163 E37.19253
G1 X120.499 Y20.163 E37.9905
G1 X120.993 Y20.182 E38.05627
G1 X121.308 Y20.206 E38.0983
G1 X122.351 Y20.371 E38.23879
G1 X122.655 Y20.445 E38.28042
G1 X123.593 Y20.751 E38.41168
G1 X123.882 Y20.87 E38.45326
G1 X124.8 Y21.336 E38.59023
G1 X125.068 Y21.5 E38.63203
G1 X125.893 Y22.099 E38.76767
G1 X126.131 Y22.302 E38.80928
G1 X126.854 Y23.024 E38.94522
G1 X127.06 Y23.265 E38.9874
G1 X127.661 Y24.092 E39.12341
G1 X127.824 Y24.358 E39.16491
G1 X128.288 Y25.269 E39.30093
G1 X128.408 Y25.559 E39.34268
G1 X128.723 Y26.531 E39.47862
G1 X128.796 Y26.836 E39.52034
G1 X128.954 Y27.831 E39.65438
G1 X128.979 Y28.144 E39.69615
G1 X129 Y28.662 E39.76512
G1 X129 Y34.786 E40.57986
G1 X130.104 Y35.436 E40.75031
G1 X130.721 Y35.848 E40.84901
G1 X131.932 Y36.762 E41.05086
G1 X132.259 Y37.023 E41.10652
G1 X132.409 Y37.149 E41.13259
G1 X132.728 Y37.426 E41.18879
G1 X133.245 Y37.928 E41.28466
G1 X133.703 Y38.484 E41.3805
G1 X134.097 Y39.088 E41.47644
G1 X134.422 Y39.732 E41.57241
G1 X134.427 Y39.746 E41.57439
G1 X134.954 Y40.09 E41.65812
G1 X135.51 Y40.548 E41.75395
G1 X136.012 Y41.066 E41.84992
G1 X136.501 Y41.704 E41.95686
G1 X136.797 Y42.149 E42.02797
G1 X136.954 Y42.398 E42.06713
G1 X137.098 Y42.647 E42.1054
G1 X137.383 Y43.163 E42.18382
G1 X143.499 Y43.163 E42.9975
G1 X143.993 Y43.182 E43.06327
G1 X144.308 Y43.206 E43.1053
G1 X145.351 Y43.371 E43.24578
G1 X145.655 Y43.445 E43.28741
G1 X146.593 Y43.751 E43.41867
G1 X146.882 Y43.87 E43.46026
G1 X147.8 Y44.336 E43.59722
G1 X148.068 Y44.5 E43.63902
G1 X148.893 Y45.099 E43.77466
G1 X149.131 Y45.302 E43.81628
G1 X149.854 Y46.024 E43.95221
G1 X150.06 Y46.265 E43.99439
G1 X150.661 Y47.092 E44.1304
G1 X150.824 Y47.358 E44.17191
G1 X151.288 Y48.269 E44.30792
G1 X151.408 Y48.559 E44.34968
G1 X151.723 Y49.531 E44.48561
G1 X151.796 Y49.836 E44.52734
G1 X151.954 Y50.831 E44.66137
G1 X151.979 Y51.144 E44.70315
G1 X152 Y51.662 E44.77212
G1 X152 Y57.662 E45.57036
G1 X151.98 Y58.176 E45.63879
G1 X151.955 Y58.491 E45.68083
G1 X151.798 Y59.484 E45.81458
G1 X151.726 Y59.786 E45.85589
G1 X151.412 Y60.757 E45.99166
G1 X151.292 Y61.048 E46.03354
G1 X150.822 Y61.972 E46.17145
G1 X150.658 Y62.239 E46.21314
G1 X150.063 Y63.057 E46.34771
G1 X149.859 Y63.296 E46.38952
G1 X149.147 Y64.01 E46.52367
G1 X148.908 Y64.215 E46.56556
G1 X148.078 Y64.82 E46.7022
G1 X147.811 Y64.984 E46.74389
G1 X146.887 Y65.454 E46.88181
G1 X146.596 Y65.574 E46.92369
G1 X145.636 Y65.885 E47.05794
G1 X145.332 Y65.958 E47.09953
G1 X144.328 Y66.118 E47.23479
G1 X144.013 Y66.143 E47.27683
G1 X143.499 Y66.163 E47.34527
G1 X137.381 Y66.163 E48.15921
G1 X137.06 Y66.743 E48.2474
G1 X136.592 Y67.469 E48.36232
G1 X135.282 Y69.234 E48.65475
G1 X134.72 Y69.895 E48.77017
G1 X133.19 Y71.466 E49.06192
G1 X132.549 Y72.042 E49.17657
G1 X130.821 Y73.4 E49.46896
G1 X130.103 Y73.89 E49.58461
G1 X129 Y74.539 E49.75487
G1 X129 Y80.662 E50.56948
G1 X128.98 Y81.176 E50.63792
G1 X128.955 Y81.491 E50.67995
G1 X128.798 Y82.484 E50.81371
G1 X128.726 Y82.786 E50.85501
G1 X128.412 Y83.757 E50.99078
G1 X128.292 Y84.048 E51.03266
G1 X127.822 Y84.972 E51.17057
G1 X127.658 Y85.239 E51.21226
G1 X127.063 Y86.057 E51.34683
G1 X126.859 Y86.296 E51.38864
G1 X126.147 Y87.01 E51.52279
G1 X125.908 Y87.215 E51.56468
G1 X125.078 Y87.82 E51.70132
G1 X124.811 Y87.984 E51.74301
G1 X123.887 Y88.454 E51.88093
G1 X123.596 Y88.574 E51.92281
G1 X122.636 Y88.885 E52.05706
G1 X122.332 Y88.958 E52.09866
G1 X121.328 Y89.118 E52.23391
G1 X121.013 Y89.143 E52.27595
G1 X120.499 Y89.163 E52.34439
G1 X114.501 Y89.163 E53.14236
G1 X113.987 Y89.143 E53.2108
G1 X113.672 Y89.118 E53.25284
G1 X112.668 Y88.958 E53.3881
G1 X112.364 Y88.885 E53.42969
G1 X111.404 Y88.574 E53.56394
G1 X111.113 Y88.454 E53.60582
G1 X110.189 Y87.984 E53.74374
G1 X109.922 Y87.82 E53.78543
G1 X109.092 Y87.215 E53.92207
G1 X108.853 Y87.01 E53.96396
G1 X108.141 Y86.296 E54.09811
G1 X107.937 Y86.057 E54.13992
G1 X107.342 Y85.239 E54.27449
G1 X107.178 Y84.972 E54.31618
G1 X106.708 Y84.048 E54.4541
G1 X106.588 Y83.757 E54.49597
G1 X106.274 Y82.786 E54.63174
G1 X106.202 Y82.484 E54.67305
G1 X106.046 Y81.495 E54.80625
G1 X106.021 Y81.182 E54.84803
G1 X106 Y80.664 E54.917
G1 X106 Y74.539 E55.73187
G1 X104.896 Y73.889 E55.90231
G1 X104.179 Y73.4 E56.01778
G1 X102.451 Y72.042 E56.31017
G1 X101.81 Y71.466 E56.42482
G1 X100.28 Y69.895 E56.71657
G1 X99.718 Y69.234 E56.832
G1 X98.408 Y67.469 E57.12442
G1 X97.941 Y66.744 E57.23916
G1 X97.619 Y66.163 E57.32753
G1 X91.501 Y66.163 E58.14147
G1 X90.987 Y66.143 E58.20991
G1 X90.672 Y66.118 E58.25195
G1 X89.668 Y65.958 E58.3872
G1 X89.364 Y65.885 E58.4288
G1 X88.404 Y65.574 E58.56305
G1 X88.113 Y65.454 E58.60493
G1 X87.189 Y64.984 E58.74285
G1 X86.922 Y64.82 E58.78453
G1 X86.092 Y64.215 E58.92118
G1 X85.853 Y64.01 E58.96307
G1 X85.141 Y63.296 E59.09722
G1 X84.937 Y63.057 E59.13903
G1 X84.342 Y62.239 E59.2736
G1 X84.178 Y61.972 E59.31528
G1 X83.708 Y61.048 E59.4532
G1 X83.588 Y60.757 E59.49508
G1 X83.274 Y59.786 E59.63085
G1 X83.202 Y59.484 E59.67215
G1 X83.046 Y58.495 E59.80536
G1 X83.021 Y58.182 E59.84713
G1 X83 Y57.664 E59.9161
G1 X83 Y51.664 E60.71435
G1 X83.02 Y51.15 E60.78278
G1 X83.045 Y50.835 E60.82482
G1 X83.202 Y49.842 E60.95857
G1 X83.274 Y49.54 E60.99988
G1 X83.588 Y48.569 E61.13564
G1 X83.708 Y48.278 E61.17752
G1 X84.173 Y47.363 E61.31407
G0 F6000 X85.026 Y47.885
G1 F1200 X85.19 Y47.617 E61.35587
G1 X85.698 Y46.917 E61.47094
G1 X85.902 Y46.678 E61.51274
G1 X86.513 Y46.067 E61.6277
G1 X86.753 Y45.862 E61.6697
